X: 10022
T: DAVIS'S JIG
C: Bob McQuillen 22 Apr 93
B: Bob's Note Book 10 #22
%R: jig
Z: 2021 John Chambers <jc:trillian.mit.edu>
M: 6/8
L: 1/8
K: D	 % and A
F2G \
| AFA dfa | bge B2d | cde gfe | dfd AFG |\
| AFA dfa | bge B2d | cBA gfe | d3 :|
K: A
|: c2d \
| efe cea | bag f2a | gfe def | ecA EAc |\
| efe cea | bag f2a | gfe dcB | A3 :|
%%begintext align
%%The "Folkway" coffee house is
%% right here in Peterborough, and when you go there for a
%% concert, be sure to go early enough so you can enjoy a nice
%% dinnnr before the music. Davis Barnes does the cooking, and
%% the dinners are delicious. Ask anyone. Ask me! (P.S.- See you
%% soon, Davis - love that swordfish!!)
%%endtext

%%sep 1 1 500

%%sep 1 1 500

